projects/icons/svg/player-mute.svg

<?xml version="1.0" encoding="UTF-8" standalone="no"?>
<svg
   viewBox="0 0 700 700"
   version="1.1"
   id="svg9724"
   sodipodi:docname="player-mute.svg"
   inkscape:version="1.3.2 (091e20ef0f, 2023-11-25)"
   width="700"
   height="700"
   xmlns:inkscape="http://www.inkscape.org/namespaces/inkscape"
   xmlns:sodipodi="http://sodipodi.sourceforge.net/DTD/sodipodi-0.dtd"
   xmlns="http://www.w3.org/2000/svg"
   xmlns:svg="http://www.w3.org/2000/svg">
  <defs
     id="defs9728" />
  <sodipodi:namedview
     id="namedview9726"
     pagecolor="#ffffff"
     bordercolor="#666666"
     borderopacity="1.0"
     inkscape:showpageshadow="2"
     inkscape:pageopacity="0.0"
     inkscape:pagecheckerboard="0"
     inkscape:deskcolor="#d1d1d1"
     showgrid="true"
     inkscape:zoom="0.84118632"
     inkscape:cx="200.31234"
     inkscape:cy="381.00952"
     inkscape:window-width="1920"
     inkscape:window-height="1048"
     inkscape:window-x="0"
     inkscape:window-y="0"
     inkscape:window-maximized="1"
     inkscape:current-layer="svg9724"
     showguides="true">
    <inkscape:grid
       type="xygrid"
       id="grid9972"
       originx="0"
       originy="0"
       spacingy="1"
       spacingx="1"
       units="px"
       visible="true" />
    <sodipodi:guide
       position="-260,300"
       orientation="0,-1"
       id="guide383"
       inkscape:locked="false" />
    <sodipodi:guide
       position="120,450"
       orientation="1,0"
       id="guide385"
       inkscape:locked="false" />
    <sodipodi:guide
       position="630,380"
       orientation="0,-1"
       id="guide939"
       inkscape:locked="false" />
    <sodipodi:guide
       position="690,230"
       orientation="0,-1"
       id="guide941"
       inkscape:locked="false" />
    <sodipodi:guide
       position="400,400"
       orientation="1,0"
       id="guide295"
       inkscape:locked="false" />
  </sodipodi:namedview>
  <g
     id="g1"
     transform="translate(49.999111,49.999998)">
    <path
       style="color:#000000;fill:#000000;stroke-linecap:round;stroke-linejoin:round;-inkscape-stroke:none"
       d="M 292.4082,0.10491418 A 40.004,40.004 0 0 0 264.11719,14.940851 L 122.94531,190.66351 H 40 a 40.004,40.004 0 0 0 -40,40 v 130.00391 a 40.004,40.004 0 0 0 40,40 h 82.41211 l 141.17187,183.71289 a 40.004,40.004 0 0 0 71.7168,-24.37305 V 39.991632 A 40.004,40.004 0 0 0 292.4082,0.10491418 Z M 255.30078,153.65179 v 288.6543 L 173.83789,336.29437 a 40.004,40.004 0 0 0 -31.7168,-15.62695 H 80 v -50.00391 h 62.12109 a 40.004,40.004 0 0 0 31.1836,-14.94726 z"
       id="path433" />
    <path
       id="path350"
       style="color:#000000;fill:#000000;stroke-linecap:round;-inkscape-stroke:none"
       d="m 400,180 a 40,40 0 0 0 -28.28516,11.71484 40,40 0 0 0 0,56.57032 L 423.42969,300 371.71484,351.71484 a 40,40 0 0 0 0,56.57032 40,40 0 0 0 56.57032,0 L 480,356.57031 l 51.71484,51.71485 a 40,40 0 0 0 56.57032,0 40,40 0 0 0 0,-56.57032 L 536.57031,300 588.28516,248.28516 a 40,40 0 0 0 0,-56.57032 A 40,40 0 0 0 560,180 40,40 0 0 0 531.71484,191.71484 L 480,243.42969 428.28516,191.71484 A 40,40 0 0 0 400,180 Z" />
  </g>
</svg>

<?xml version="1.0" encoding="UTF-8" standalone="no"?>
<svg
   viewBox="0 0 600 600"
   version="1.1"
   id="svg9724"
   sodipodi:docname="player-sound-mute.svg"
   inkscape:version="1.2.2 (1:1.2.2+202212051550+b0a8486541)"
   width="600"
   height="600"
   xmlns:inkscape="http://www.inkscape.org/namespaces/inkscape"
   xmlns:sodipodi="http://sodipodi.sourceforge.net/DTD/sodipodi-0.dtd"
   xmlns="http://www.w3.org/2000/svg"
   xmlns:svg="http://www.w3.org/2000/svg">
  <defs
     id="defs9728" />
  <sodipodi:namedview
     id="namedview9726"
     pagecolor="#ffffff"
     bordercolor="#666666"
     borderopacity="1.0"
     inkscape:showpageshadow="2"
     inkscape:pageopacity="0.0"
     inkscape:pagecheckerboard="0"
     inkscape:deskcolor="#d1d1d1"
     showgrid="true"
     inkscape:zoom="0.84118632"
     inkscape:cx="200.31234"
     inkscape:cy="381.00952"
     inkscape:window-width="1920"
     inkscape:window-height="1009"
     inkscape:window-x="0"
     inkscape:window-y="1080"
     inkscape:window-maximized="1"
     inkscape:current-layer="svg9724"
     showguides="true">
    <inkscape:grid
       type="xygrid"
       id="grid9972"
       originx="0"
       originy="0" />
    <sodipodi:guide
       position="-260,300"
       orientation="0,-1"
       id="guide383"
       inkscape:locked="false" />
    <sodipodi:guide
       position="120,450"
       orientation="1,0"
       id="guide385"
       inkscape:locked="false" />
    <sodipodi:guide
       position="630,380"
       orientation="0,-1"
       id="guide939"
       inkscape:locked="false" />
    <sodipodi:guide
       position="690,230"
       orientation="0,-1"
       id="guide941"
       inkscape:locked="false" />
    <sodipodi:guide
       position="400,400"
       orientation="1,0"
       id="guide295"
       inkscape:locked="false" />
  </sodipodi:namedview>

  <path
     style="color:#000000;fill:#000000;stroke-linecap:round;stroke-linejoin:round;-inkscape-stroke:none"
     d="M 292.4082,0.10491418 A 40.004,40.004 0 0 0 264.11719,14.940851 L 122.94531,190.66351 H 40 a 40.004,40.004 0 0 0 -40,40 v 130.00391 a 40.004,40.004 0 0 0 40,40 h 82.41211 l 141.17187,183.71289 a 40.004,40.004 0 0 0 71.7168,-24.37305 V 39.991632 A 40.004,40.004 0 0 0 292.4082,0.10491418 Z M 255.30078,153.65179 v 288.6543 L 173.83789,336.29437 a 40.004,40.004 0 0 0 -31.7168,-15.62695 H 80 v -50.00391 h 62.12109 a 40.004,40.004 0 0 0 31.1836,-14.94726 z"
     id="path433" />
  <path
     id="path350"
     style="color:#000000;fill:#000000;stroke-linecap:round;-inkscape-stroke:none"
     d="M 400 180 A 40 40 0 0 0 371.71484 191.71484 A 40 40 0 0 0 371.71484 248.28516 L 423.42969 300 L 371.71484 351.71484 A 40 40 0 0 0 371.71484 408.28516 A 40 40 0 0 0 428.28516 408.28516 L 480 356.57031 L 531.71484 408.28516 A 40 40 0 0 0 588.28516 408.28516 A 40 40 0 0 0 588.28516 351.71484 L 536.57031 300 L 588.28516 248.28516 A 40 40 0 0 0 588.28516 191.71484 A 40 40 0 0 0 560 180 A 40 40 0 0 0 531.71484 191.71484 L 480 243.42969 L 428.28516 191.71484 A 40 40 0 0 0 400 180 z " />
</svg>
